64x64/apps/gnome-panel-hibernate.svg

<svg xmlns="http://www.w3.org/2000/svg" width="64" height="64" version="1"><circle style="opacity:.2" cx="32" cy="33" r="29"/><circle style="fill:#673ab7" cx="32" cy="32" r="29"/><path style="opacity:.2" d="M32 12a21 21 0 0 0-21 21 21 21 0 0 0 21 21 21 21 0 0 0 21-21 21 21 0 0 0-21-21zm0 6a15 15 0 0 1 15 15 15 15 0 0 1-15 15 15 15 0 0 1-15-15 15 15 0 0 1 15-15zm0 9a6 6 0 0 0-6 6 6 6 0 0 0 6 6 6 6 0 0 0 6-6 6 6 0 0 0-6-6z"/><path style="fill:#f4f4f7" d="M32 11a21 21 0 0 0-21 21 21 21 0 0 0 21 21 21 21 0 0 0 21-21 21 21 0 0 0-21-21zm0 6a15 15 0 0 1 15 15 15 15 0 0 1-15 15 15 15 0 0 1-15-15 15 15 0 0 1 15-15zm0 9a6 6 0 0 0-6 6 6 6 0 0 0 6 6 6 6 0 0 0 6-6 6 6 0 0 0-6-6z"/><path style="opacity:.1;fill:#f4f4f7" d="M32 3A29 29 0 0 0 3 32a29 29 0 0 0 .018.488A29 29 0 0 1 32 4a29 29 0 0 1 28.975 28.494A29 29 0 0 0 61 32 29 29 0 0 0 32 3z"/></svg>

<svg xmlns="http://www.w3.org/2000/svg" width="64" height="64" version="1">
 <circle style="opacity:0.2" cx="32" cy="33" r="29"/>
 <circle style="fill:#673ab7" cx="32" cy="32" r="29"/>
 <path style="opacity:0.2" d="M 32,12 A 21,21 0 0 0 11,33 21,21 0 0 0 32,54 21,21 0 0 0 53,33 21,21 0 0 0 32,12 Z m 0,6 A 15,15 0 0 1 47,33 15,15 0 0 1 32,48 15,15 0 0 1 17,33 15,15 0 0 1 32,18 Z m 0,9 a 5.9999997,5.9999997 0 0 0 -6,6 5.9999997,5.9999997 0 0 0 6,6 5.9999997,5.9999997 0 0 0 6,-6 5.9999997,5.9999997 0 0 0 -6,-6 z"/>
 <path style="fill:#f4f4f7" d="M 32 11 A 21 21 0 0 0 11 32 A 21 21 0 0 0 32 53 A 21 21 0 0 0 53 32 A 21 21 0 0 0 32 11 z M 32 17 A 15 15 0 0 1 47 32 A 15 15 0 0 1 32 47 A 15 15 0 0 1 17 32 A 15 15 0 0 1 32 17 z M 32 26 A 5.9999997 5.9999997 0 0 0 26 32 A 5.9999997 5.9999997 0 0 0 32 38 A 5.9999997 5.9999997 0 0 0 38 32 A 5.9999997 5.9999997 0 0 0 32 26 z"/>
 <path style="opacity:0.1;fill:#f4f4f7" d="M 32 3 A 29 29 0 0 0 3 32 A 29 29 0 0 0 3.0175781 32.488281 A 29 29 0 0 1 32 4 A 29 29 0 0 1 60.974609 32.494141 A 29 29 0 0 0 61 32 A 29 29 0 0 0 32 3 z"/>
</svg>
